docroot/themes/custom/yqb/svg/min/travaux.svg

<svg xmlns="http://www.w3.org/2000/svg" viewBox="0 0 42 40" width="42" height="40"><style>tspan{white-space:pre}.shp0{fill:#fff}</style><g id="np_construction_2705368_000000 copy 4"><path id="Shape" fill-rule="evenodd" class="shp0" d="M37.42 21.57v13.92h2.4V40h-8.49v-4.51h2.38V21.57h-1.74V16.8H9.91v4.77H8.17v13.92h2.38V40H2.07v-4.51h2.39V21.57H2.78V16.8H.12l-.12.12V0h42v16.8h-2.83v4.77h-1.75zM1.33 10.1l8.53-8.74H1.33v8.74zm.03 3.51L13.33 1.36h-1.59L1.33 12.04l.03 1.57zM3.4 36.85v1.79h5.82v-1.79H3.4zm3.44-1.51V21.57H5.79v13.77h1.05zM8.58 16.8H4.04v3.4h4.54v-3.4zm3.31-1.36L25.65 1.36H15.2L1.45 15.44h10.44zM29.11 1.36h-1.58L13.78 15.44h1.55L29.11 1.36zm-2.09 14.08L40.67 1.47v-.11h-9.68L17.21 15.44h9.81zM40.67 5V3.38L28.86 15.44h1.65L40.67 5zm-8.31 10.44h8.35V6.93l-8.35 8.51zm.3 21.41v1.79h5.86v-1.76l-5.86-.03zm3.48-1.51V21.57h-1.06v13.81l1.06-.04zm1.75-15.1v-3.4h-4.55v3.4h4.55z"/></g></svg>

<svg xmlns="http://www.w3.org/2000/svg" viewBox="0 0 42 40" width="42" height="40">
	<style>
		tspan { white-space:pre }
		.shp0 { fill: #ffffff } 
	</style>
	<g id="np_construction_2705368_000000 copy 4">
		<path id="Shape" fill-rule="evenodd" class="shp0" d="M37.42 21.57L37.42 35.49L39.82 35.49L39.82 40L31.33 40L31.33 35.49L33.71 35.49L33.71 21.57L31.97 21.57L31.97 16.8L9.91 16.8L9.91 21.57L8.17 21.57L8.17 35.49L10.55 35.49L10.55 40L2.07 40L2.07 35.49L4.46 35.49L4.46 21.57L2.78 21.57L2.78 16.8L0.12 16.8L0 16.92L0 0L42 0L42 16.8L39.17 16.8L39.17 21.57L37.42 21.57ZM1.33 10.1L9.86 1.36L1.33 1.36L1.33 10.1ZM1.36 13.61L13.33 1.36L11.74 1.36L1.33 12.04L1.36 13.61ZM3.4 36.85L3.4 38.64L9.22 38.64L9.22 36.85L3.4 36.85ZM6.84 35.34L6.84 21.57L5.79 21.57L5.79 35.34L6.84 35.34ZM8.58 16.8L4.04 16.8L4.04 20.2L8.58 20.2L8.58 16.8ZM11.89 15.44L25.65 1.36L15.2 1.36L1.45 15.44L11.89 15.44ZM29.11 1.36L27.53 1.36L13.78 15.44L15.33 15.44L29.11 1.36ZM27.02 15.44L40.67 1.47L40.67 1.36L30.99 1.36L17.21 15.44L27.02 15.44ZM40.67 5L40.67 3.38L28.86 15.44L30.51 15.44L40.67 5ZM32.36 15.44L40.71 15.44L40.71 6.93L32.36 15.44ZM32.66 36.85L32.66 38.64L38.52 38.64L38.52 36.88L32.66 36.85ZM36.14 35.34L36.14 21.57L35.08 21.57L35.08 35.38L36.14 35.34ZM37.89 20.24L37.89 16.84L33.34 16.84L33.34 20.24L37.89 20.24Z" />
	</g>
</svg>
